X: 1
T: Boys On The Hilltop, The
M: 4/4
L: 1/8
R: reel
K: Ador
~A3B B2AG|EG~G2 EGBG|A2AB B2AB|egdB BAAG|
~A3B B2AG|EG~G2 EGBG|cEGc dB~B2|dBAG EAAG|
A2 (3Bcd egdB|GB~B2 defg|a2gd egdB|GBdB BAA2|
a2gd egdB|GB~B2 defg|a2gd egdB|fggf gedB|
